X:26
T:B minor tune heard at J Patrick's
N:Notes tied into rolls  I'm not sure how B-~B2
N:differs from ~B3.  In BarFly they can sound the same
N:or different, depending on which roll macro is used.
M:4/4
L:1/8
R:reel
K:BDor
FB-~B2 cdec|dfec BAFE|FB-~B2 caag|afea f2 fe|
fafe cfec|BABc defg|affe fecB|1 cfec B2 =GB :|2 cfec B2 Bc||
dB-~B2 aBgB|fB-~B2 cBAc|dB-~B2 caag|afea f2 fe|
fafe cfec|BABc defg|affe fecB|1 cfec B2 Bc :|2 cfec B2 =GB||

